images/50541086.svg

<?xml version="1.0" encoding="UTF-8"?>
<svg xmlns="http://www.w3.org/2000/svg" xmlns:xlink="http://www.w3.org/1999/xlink" width="300pt" height="300pt" viewBox="0 0 300 300" version="1.1">
<defs>
<g>
<symbol overflow="visible" id="glyph0-0">
<path style="stroke:none;" d="M 0.59375 2.125 L 0.59375 -8.46875 L 6.59375 -8.46875 L 6.59375 2.125 Z M 1.265625 1.453125 L 5.9375 1.453125 L 5.9375 -7.78125 L 1.265625 -7.78125 Z M 1.265625 1.453125 "/>
</symbol>
<symbol overflow="visible" id="glyph0-1">
<path style="stroke:none;" d="M 1.171875 -8.75 L 6.203125 -8.75 L 6.203125 -7.75 L 2.359375 -7.75 L 2.359375 -5.171875 L 5.828125 -5.171875 L 5.828125 -4.171875 L 2.359375 -4.171875 L 2.359375 0 L 1.171875 0 Z M 1.171875 -8.75 "/>
</symbol>
<symbol overflow="visible" id="glyph0-2">
<path style="stroke:none;" d="M 1.171875 -8.75 L 2.765625 -8.75 L 6.65625 -1.4375 L 6.65625 -8.75 L 7.796875 -8.75 L 7.796875 0 L 6.203125 0 L 2.328125 -7.3125 L 2.328125 0 L 1.171875 0 Z M 1.171875 -8.75 "/>
</symbol>
<symbol overflow="visible" id="glyph0-3">
<path style="stroke:none;" d="M 1.171875 -8.75 L 2.359375 -8.75 L 2.359375 -5.15625 L 6.65625 -5.15625 L 6.65625 -8.75 L 7.84375 -8.75 L 7.84375 0 L 6.65625 0 L 6.65625 -4.171875 L 2.359375 -4.171875 L 2.359375 0 L 1.171875 0 Z M 1.171875 -8.75 "/>
</symbol>
</g>
</defs>
<g id="surface12029">
<rect x="0" y="0" width="300" height="300" style="fill:rgb(100%,100%,100%);fill-opacity:1;stroke:none;"/>
<path style="fill:none;stroke-width:1.2;stroke-linecap:butt;stroke-linejoin:miter;stroke:rgb(20%,80%,80%);stroke-opacity:1;stroke-miterlimit:10;" d="M 35.25 190.414062 L 49.40625 186.671875 "/>
<path style="fill:none;stroke-width:1.2;stroke-linecap:butt;stroke-linejoin:miter;stroke:rgb(0%,0%,0%);stroke-opacity:1;stroke-miterlimit:10;" d="M 49.40625 186.671875 L 63.5625 182.929688 "/>
<path style=" stroke:none;fill-rule:nonzero;fill:rgb(100%,100%,100%);fill-opacity:1;" d="M 28.25 183.414062 L 35.25 183.414062 L 35.25 197.414062 L 28.25 197.414062 Z M 28.25 183.414062 "/>
<g style="fill:rgb(20%,80%,80%);fill-opacity:1;">
  <use xlink:href="#glyph0-1" x="28.25" y="194.552734"/>
</g>
<path style="fill:none;stroke-width:1.2;stroke-linecap:butt;stroke-linejoin:miter;stroke:rgb(0%,0%,0%);stroke-opacity:1;stroke-miterlimit:10;" d="M 63.5625 182.929688 L 71.238281 154.667969 "/>
<path style="fill:none;stroke-width:1.2;stroke-linecap:butt;stroke-linejoin:miter;stroke:rgb(0%,0%,0%);stroke-opacity:1;stroke-miterlimit:10;" d="M 70.980469 181.910156 L 77.121094 159.300781 "/>
<path style="fill:none;stroke-width:1.2;stroke-linecap:butt;stroke-linejoin:miter;stroke:rgb(0%,0%,0%);stroke-opacity:1;stroke-miterlimit:10;" d="M 84.199219 203.707031 L 63.5625 182.929688 "/>
<path style="fill:none;stroke-width:1.2;stroke-linecap:butt;stroke-linejoin:miter;stroke:rgb(0%,0%,0%);stroke-opacity:1;stroke-miterlimit:10;" d="M 71.238281 154.667969 L 85.394531 150.929688 "/>
<path style="fill:none;stroke-width:1.2;stroke-linecap:butt;stroke-linejoin:miter;stroke:rgb(0%,0%,100%);stroke-opacity:1;stroke-miterlimit:10;" d="M 85.394531 150.929688 L 99.550781 147.1875 "/>
<path style="fill:none;stroke-width:1.2;stroke-linecap:butt;stroke-linejoin:miter;stroke:rgb(0%,0%,100%);stroke-opacity:1;stroke-miterlimit:10;" d="M 99.550781 147.1875 L 109.871094 157.578125 "/>
<path style="fill:none;stroke-width:1.2;stroke-linecap:butt;stroke-linejoin:miter;stroke:rgb(0%,0%,0%);stroke-opacity:1;stroke-miterlimit:10;" d="M 109.871094 157.578125 L 120.1875 167.964844 "/>
<path style="fill:none;stroke-width:1.2;stroke-linecap:butt;stroke-linejoin:miter;stroke:rgb(0%,0%,100%);stroke-opacity:1;stroke-miterlimit:10;" d="M 96.726562 154.121094 L 104.980469 162.433594 "/>
<path style="fill:none;stroke-width:1.2;stroke-linecap:butt;stroke-linejoin:miter;stroke:rgb(0%,0%,0%);stroke-opacity:1;stroke-miterlimit:10;" d="M 104.980469 162.433594 L 113.234375 170.742188 "/>
<path style=" stroke:none;fill-rule:nonzero;fill:rgb(100%,100%,100%);fill-opacity:1;" d="M 95.550781 140.1875 L 104.550781 140.1875 L 104.550781 154.1875 L 95.550781 154.1875 Z M 95.550781 140.1875 "/>
<g style="fill:rgb(0%,0%,100%);fill-opacity:1;">
  <use xlink:href="#glyph0-2" x="95.550781" y="151.326172"/>
</g>
<path style="fill:none;stroke-width:1.2;stroke-linecap:butt;stroke-linejoin:miter;stroke:rgb(0%,0%,0%);stroke-opacity:1;stroke-miterlimit:10;" d="M 120.1875 167.964844 L 116.351562 182.097656 "/>
<path style="fill:none;stroke-width:1.2;stroke-linecap:butt;stroke-linejoin:miter;stroke:rgb(0%,0%,100%);stroke-opacity:1;stroke-miterlimit:10;" d="M 116.351562 182.097656 L 112.511719 196.226562 "/>
<path style=" stroke:none;fill-rule:nonzero;fill:rgb(0%,0%,0%);fill-opacity:1;" d="M 148.5 160.484375 L 118.867188 162.96875 L 121.507812 172.960938 Z M 148.5 160.484375 "/>
<path style="fill:none;stroke-width:1.2;stroke-linecap:butt;stroke-linejoin:miter;stroke:rgb(0%,0%,100%);stroke-opacity:1;stroke-miterlimit:10;" d="M 112.511719 196.226562 L 98.355469 199.96875 "/>
<path style="fill:none;stroke-width:1.2;stroke-linecap:butt;stroke-linejoin:miter;stroke:rgb(0%,0%,0%);stroke-opacity:1;stroke-miterlimit:10;" d="M 98.355469 199.96875 L 84.199219 203.707031 "/>
<path style="fill:none;stroke-width:1.2;stroke-linecap:butt;stroke-linejoin:miter;stroke:rgb(0%,0%,100%);stroke-opacity:1;stroke-miterlimit:10;" d="M 107.917969 190.3125 L 96.59375 193.304688 "/>
<path style="fill:none;stroke-width:1.2;stroke-linecap:butt;stroke-linejoin:miter;stroke:rgb(0%,0%,0%);stroke-opacity:1;stroke-miterlimit:10;" d="M 96.59375 193.304688 L 85.269531 196.296875 "/>
<path style=" stroke:none;fill-rule:nonzero;fill:rgb(100%,100%,100%);fill-opacity:1;" d="M 108.511719 189.226562 L 117.511719 189.226562 L 117.511719 203.226562 L 108.511719 203.226562 Z M 108.511719 189.226562 "/>
<g style="fill:rgb(0%,0%,100%);fill-opacity:1;">
  <use xlink:href="#glyph0-2" x="108.511719" y="200.365234"/>
</g>
<path style="fill:none;stroke-width:1.2;stroke-linecap:butt;stroke-linejoin:miter;stroke:rgb(0%,0%,0%);stroke-opacity:1;stroke-miterlimit:10;" d="M 148.5 160.484375 L 152.339844 146.351562 "/>
<path style="fill:none;stroke-width:1.2;stroke-linecap:butt;stroke-linejoin:miter;stroke:rgb(0%,0%,100%);stroke-opacity:1;stroke-miterlimit:10;" d="M 152.339844 146.351562 L 156.175781 132.222656 "/>
<path style="fill:none;stroke-width:1.2;stroke-linecap:butt;stroke-linejoin:miter;stroke:rgb(0%,0%,0%);stroke-opacity:1;stroke-miterlimit:10;" d="M 148.5 160.484375 L 169.136719 181.261719 "/>
<path style="fill:none;stroke-width:1.2;stroke-linecap:butt;stroke-linejoin:miter;stroke:rgb(0%,0%,100%);stroke-opacity:1;stroke-miterlimit:10;" d="M 156.175781 132.222656 L 170.332031 128.480469 "/>
<path style="fill:none;stroke-width:1.2;stroke-linecap:butt;stroke-linejoin:miter;stroke:rgb(0%,0%,0%);stroke-opacity:1;stroke-miterlimit:10;" d="M 170.332031 128.480469 L 184.488281 124.742188 "/>
<path style=" stroke:none;fill-rule:nonzero;fill:rgb(100%,100%,100%);fill-opacity:1;" d="M 147.175781 125.222656 L 165.175781 125.222656 L 165.175781 139.222656 L 147.175781 139.222656 Z M 147.175781 125.222656 "/>
<g style="fill:rgb(0%,0%,100%);fill-opacity:1;">
  <use xlink:href="#glyph0-2" x="147.175781" y="136.361328"/>
  <use xlink:href="#glyph0-3" x="156.152344" y="136.361328"/>
</g>
<path style="fill:none;stroke-width:1.2;stroke-linecap:butt;stroke-linejoin:miter;stroke:rgb(0%,0%,0%);stroke-opacity:1;stroke-miterlimit:10;" d="M 184.488281 124.742188 L 194.808594 135.128906 "/>
<path style="fill:none;stroke-width:1.2;stroke-linecap:butt;stroke-linejoin:miter;stroke:rgb(0%,0%,100%);stroke-opacity:1;stroke-miterlimit:10;" d="M 194.808594 135.128906 L 205.125 145.519531 "/>
<path style="fill:none;stroke-width:1.2;stroke-linecap:butt;stroke-linejoin:miter;stroke:rgb(0%,0%,0%);stroke-opacity:1;stroke-miterlimit:10;" d="M 191.441406 121.960938 L 199.699219 130.273438 "/>
<path style="fill:none;stroke-width:1.2;stroke-linecap:butt;stroke-linejoin:miter;stroke:rgb(0%,0%,100%);stroke-opacity:1;stroke-miterlimit:10;" d="M 199.699219 130.273438 L 207.953125 138.585938 "/>
<path style="fill:none;stroke-width:1.2;stroke-linecap:butt;stroke-linejoin:miter;stroke:rgb(0%,0%,0%);stroke-opacity:1;stroke-miterlimit:10;" d="M 192.167969 96.480469 L 184.488281 124.742188 "/>
<path style="fill:none;stroke-width:1.2;stroke-linecap:butt;stroke-linejoin:miter;stroke:rgb(0%,0%,100%);stroke-opacity:1;stroke-miterlimit:10;" d="M 205.125 145.519531 L 219.28125 141.777344 "/>
<path style="fill:none;stroke-width:1.2;stroke-linecap:butt;stroke-linejoin:miter;stroke:rgb(0%,0%,0%);stroke-opacity:1;stroke-miterlimit:10;" d="M 219.28125 141.777344 L 233.4375 138.035156 "/>
<path style=" stroke:none;fill-rule:nonzero;fill:rgb(100%,100%,100%);fill-opacity:1;" d="M 201.125 138.519531 L 210.125 138.519531 L 210.125 152.519531 L 201.125 152.519531 Z M 201.125 138.519531 "/>
<g style="fill:rgb(0%,0%,100%);fill-opacity:1;">
  <use xlink:href="#glyph0-2" x="201.125" y="149.658203"/>
</g>
<path style="fill:none;stroke-width:1.2;stroke-linecap:butt;stroke-linejoin:miter;stroke:rgb(0%,0%,0%);stroke-opacity:1;stroke-miterlimit:10;" d="M 233.4375 138.035156 L 243.757812 148.425781 "/>
<path style="fill:none;stroke-width:1.2;stroke-linecap:butt;stroke-linejoin:miter;stroke:rgb(0%,0%,100%);stroke-opacity:1;stroke-miterlimit:10;" d="M 243.757812 148.425781 L 254.074219 158.816406 "/>
<path style="fill:none;stroke-width:1.2;stroke-linecap:butt;stroke-linejoin:miter;stroke:rgb(0%,0%,0%);stroke-opacity:1;stroke-miterlimit:10;" d="M 233.4375 138.035156 L 241.117188 109.777344 "/>
<path style="fill:none;stroke-width:1.2;stroke-linecap:butt;stroke-linejoin:miter;stroke:rgb(0%,0%,0%);stroke-opacity:1;stroke-miterlimit:10;" d="M 227.558594 133.402344 L 233.699219 110.796875 "/>
<path style="fill:none;stroke-width:1.2;stroke-linecap:butt;stroke-linejoin:miter;stroke:rgb(0%,0%,100%);stroke-opacity:1;stroke-miterlimit:10;" d="M 254.074219 158.816406 L 250.238281 172.945312 "/>
<path style="fill:none;stroke-width:1.2;stroke-linecap:butt;stroke-linejoin:miter;stroke:rgb(0%,0%,0%);stroke-opacity:1;stroke-miterlimit:10;" d="M 250.238281 172.945312 L 246.398438 187.074219 "/>
<path style=" stroke:none;fill-rule:nonzero;fill:rgb(100%,100%,100%);fill-opacity:1;" d="M 245.074219 151.816406 L 263.074219 151.816406 L 263.074219 165.816406 L 245.074219 165.816406 Z M 245.074219 151.816406 "/>
<g style="fill:rgb(0%,0%,100%);fill-opacity:1;">
  <use xlink:href="#glyph0-2" x="245.074219" y="162.955078"/>
  <use xlink:href="#glyph0-3" x="254.050781" y="162.955078"/>
</g>
<path style="fill:none;stroke-width:1.2;stroke-linecap:butt;stroke-linejoin:miter;stroke:rgb(0%,0%,0%);stroke-opacity:1;stroke-miterlimit:10;" d="M 246.398438 187.074219 L 255.574219 198.488281 "/>
<path style="fill:none;stroke-width:1.2;stroke-linecap:butt;stroke-linejoin:miter;stroke:rgb(0%,0%,100%);stroke-opacity:1;stroke-miterlimit:10;" d="M 255.574219 198.488281 L 264.75 209.898438 "/>
<path style="fill:none;stroke-width:1.2;stroke-linecap:butt;stroke-linejoin:miter;stroke:rgb(0%,0%,0%);stroke-opacity:1;stroke-miterlimit:10;" d="M 219.023438 197.476562 L 246.398438 187.074219 "/>
<path style="fill:none;stroke-width:1.2;stroke-linecap:butt;stroke-linejoin:miter;stroke:rgb(0%,0%,0%);stroke-opacity:1;stroke-miterlimit:10;" d="M 224.207031 202.878906 L 246.109375 194.558594 "/>
<path style="fill:none;stroke-width:1.2;stroke-linecap:butt;stroke-linejoin:miter;stroke:rgb(0%,0%,100%);stroke-opacity:1;stroke-miterlimit:10;" d="M 264.75 209.898438 L 248.714844 234.402344 "/>
<path style=" stroke:none;fill-rule:nonzero;fill:rgb(100%,100%,100%);fill-opacity:1;" d="M 255.75 202.898438 L 273.75 202.898438 L 273.75 216.898438 L 255.75 216.898438 Z M 255.75 202.898438 "/>
<g style="fill:rgb(0%,0%,100%);fill-opacity:1;">
  <use xlink:href="#glyph0-2" x="255.75" y="214.037109"/>
  <use xlink:href="#glyph0-3" x="264.726562" y="214.037109"/>
</g>
<path style="fill:none;stroke-width:1.2;stroke-linecap:butt;stroke-linejoin:miter;stroke:rgb(0%,0%,100%);stroke-opacity:1;stroke-miterlimit:10;" d="M 248.714844 234.402344 L 234.585938 230.5625 "/>
<path style="fill:none;stroke-width:1.2;stroke-linecap:butt;stroke-linejoin:miter;stroke:rgb(0%,0%,0%);stroke-opacity:1;stroke-miterlimit:10;" d="M 234.585938 230.5625 L 220.457031 226.726562 "/>
<path style="fill:none;stroke-width:1.2;stroke-linecap:butt;stroke-linejoin:miter;stroke:rgb(0%,0%,100%);stroke-opacity:1;stroke-miterlimit:10;" d="M 247.695312 226.984375 L 236.390625 223.914062 "/>
<path style="fill:none;stroke-width:1.2;stroke-linecap:butt;stroke-linejoin:miter;stroke:rgb(0%,0%,0%);stroke-opacity:1;stroke-miterlimit:10;" d="M 236.390625 223.914062 L 225.085938 220.84375 "/>
<path style=" stroke:none;fill-rule:nonzero;fill:rgb(100%,100%,100%);fill-opacity:1;" d="M 244.714844 227.402344 L 253.714844 227.402344 L 253.714844 241.402344 L 244.714844 241.402344 Z M 244.714844 227.402344 "/>
<g style="fill:rgb(0%,0%,100%);fill-opacity:1;">
  <use xlink:href="#glyph0-2" x="244.714844" y="238.541016"/>
</g>
<path style="fill:none;stroke-width:1.2;stroke-linecap:butt;stroke-linejoin:miter;stroke:rgb(0%,0%,0%);stroke-opacity:1;stroke-miterlimit:10;" d="M 220.457031 226.726562 L 219.023438 197.476562 "/>
<path style="fill:none;stroke-width:1.2;stroke-linecap:butt;stroke-linejoin:miter;stroke:rgb(0%,0%,0%);stroke-opacity:1;stroke-miterlimit:10;" d="M 220.457031 226.726562 L 197.632812 245.078125 "/>
<path style="fill:none;stroke-width:1.2;stroke-linecap:butt;stroke-linejoin:miter;stroke:rgb(0%,0%,0%);stroke-opacity:1;stroke-miterlimit:10;" d="M 241.117188 109.777344 L 230.796875 99.386719 "/>
<path style="fill:none;stroke-width:1.2;stroke-linecap:butt;stroke-linejoin:miter;stroke:rgb(0%,0%,100%);stroke-opacity:1;stroke-miterlimit:10;" d="M 230.796875 99.386719 L 220.480469 88.996094 "/>
<path style="fill:none;stroke-width:1.2;stroke-linecap:butt;stroke-linejoin:miter;stroke:rgb(0%,0%,100%);stroke-opacity:1;stroke-miterlimit:10;" d="M 220.480469 88.996094 L 206.324219 92.738281 "/>
<path style="fill:none;stroke-width:1.2;stroke-linecap:butt;stroke-linejoin:miter;stroke:rgb(0%,0%,0%);stroke-opacity:1;stroke-miterlimit:10;" d="M 206.324219 92.738281 L 192.167969 96.480469 "/>
<path style="fill:none;stroke-width:1.2;stroke-linecap:butt;stroke-linejoin:miter;stroke:rgb(0%,0%,100%);stroke-opacity:1;stroke-miterlimit:10;" d="M 219.410156 96.40625 L 208.082031 99.398438 "/>
<path style="fill:none;stroke-width:1.2;stroke-linecap:butt;stroke-linejoin:miter;stroke:rgb(0%,0%,0%);stroke-opacity:1;stroke-miterlimit:10;" d="M 208.082031 99.398438 L 196.757812 102.394531 "/>
<path style=" stroke:none;fill-rule:nonzero;fill:rgb(100%,100%,100%);fill-opacity:1;" d="M 216.480469 81.996094 L 225.480469 81.996094 L 225.480469 95.996094 L 216.480469 95.996094 Z M 216.480469 81.996094 "/>
<g style="fill:rgb(0%,0%,100%);fill-opacity:1;">
  <use xlink:href="#glyph0-2" x="216.480469" y="93.134766"/>
</g>
<path style="fill:none;stroke-width:1.2;stroke-linecap:butt;stroke-linejoin:miter;stroke:rgb(0%,0%,0%);stroke-opacity:1;stroke-miterlimit:10;" d="M 192.167969 96.480469 L 171.53125 75.703125 "/>
<path style="fill:none;stroke-width:1.2;stroke-linecap:butt;stroke-linejoin:miter;stroke:rgb(0%,0%,0%);stroke-opacity:1;stroke-miterlimit:10;" d="M 171.53125 75.703125 L 161.210938 65.3125 "/>
<path style="fill:none;stroke-width:1.2;stroke-linecap:butt;stroke-linejoin:miter;stroke:rgb(0%,0%,100%);stroke-opacity:1;stroke-miterlimit:10;" d="M 161.210938 65.3125 L 150.894531 54.921875 "/>
<path style="fill:none;stroke-width:1.2;stroke-linecap:butt;stroke-linejoin:miter;stroke:rgb(0%,0%,0%);stroke-opacity:1;stroke-miterlimit:10;" d="M 174.355469 68.769531 L 166.101562 60.457031 "/>
<path style="fill:none;stroke-width:1.2;stroke-linecap:butt;stroke-linejoin:miter;stroke:rgb(0%,0%,100%);stroke-opacity:1;stroke-miterlimit:10;" d="M 166.101562 60.457031 L 157.847656 52.144531 "/>
<path style="fill:none;stroke-width:1.2;stroke-linecap:butt;stroke-linejoin:miter;stroke:rgb(0%,0%,0%);stroke-opacity:1;stroke-miterlimit:10;" d="M 164.578125 78.480469 L 156.324219 70.167969 "/>
<path style="fill:none;stroke-width:1.2;stroke-linecap:butt;stroke-linejoin:miter;stroke:rgb(0%,0%,100%);stroke-opacity:1;stroke-miterlimit:10;" d="M 156.324219 70.167969 L 148.070312 61.855469 "/>
<path style=" stroke:none;fill-rule:nonzero;fill:rgb(100%,100%,100%);fill-opacity:1;" d="M 141.894531 47.921875 L 150.894531 47.921875 L 150.894531 61.921875 L 141.894531 61.921875 Z M 141.894531 47.921875 "/>
<g style="fill:rgb(0%,0%,100%);fill-opacity:1;">
  <use xlink:href="#glyph0-2" x="141.894531" y="59.060547"/>
</g>
</g>
</svg>

<svg xmlns="http://www.w3.org/2000/svg" xmlns:xlink="http://www.w3.org/1999/xlink" width="300pt" height="300pt" viewBox="0 0 300 300"><defs><symbol overflow="visible"><path d="M.594 2.125V-8.47h6V2.126zm.672-.672h4.671V-7.78h-4.67zm0 0"/></symbol><symbol overflow="visible" id="a"><path d="M1.172-8.75h5.03v1H2.36v2.578h3.468v1h-3.47V0H1.173zm0 0"/></symbol><symbol overflow="visible" id="b"><path d="M1.172-8.75h1.594l3.89 7.313V-8.75h1.14V0H6.204L2.328-7.313V0H1.172zm0 0"/></symbol><symbol overflow="visible" id="c"><path d="M1.172-8.75H2.36v3.594h4.296V-8.75h1.188V0H6.656v-4.172H2.36V0H1.17zm0 0"/></symbol></defs><g><path fill="#fff" d="M0 0h300v300H0z"/><path d="M35.25 190.414l14.156-3.742" stroke-width="1.2" stroke="#3cc" stroke-miterlimit="10" fill="none"/><path d="M49.406 186.672l14.157-3.742" stroke-width="1.2" stroke="#000" stroke-miterlimit="10" fill="none"/><path d="M28.25 183.414h7v14h-7zm0 0" fill="#fff"/><use xlink:href="#a" x="28.25" y="194.553" fill="#3cc"/><path d="M63.563 182.93l7.675-28.262M70.98 181.91l6.14-22.61M84.2 203.707L63.56 182.93M71.238 154.668l14.157-3.738" stroke-width="1.2" stroke="#000" stroke-miterlimit="10" fill="none"/><path d="M85.395 150.93l14.156-3.743M99.55 147.188l10.32 10.39" stroke-width="1.2" stroke="#00f" stroke-miterlimit="10" fill="none"/><path d="M109.87 157.578l10.317 10.387" stroke-width="1.2" stroke="#000" stroke-miterlimit="10" fill="none"/><path d="M96.727 154.12l8.253 8.314" stroke-width="1.2" stroke="#00f" stroke-miterlimit="10" fill="none"/><path d="M104.98 162.434l8.254 8.308" stroke-width="1.2" stroke="#000" stroke-miterlimit="10" fill="none"/><path d="M95.55 140.188h9v14h-9zm0 0" fill="#fff"/><use xlink:href="#b" x="95.551" y="151.326" fill="#00f"/><path d="M120.188 167.965l-3.836 14.133" stroke-width="1.2" stroke="#000" stroke-miterlimit="10" fill="none"/><path d="M116.352 182.098l-3.84 14.13" stroke-width="1.2" stroke="#00f" stroke-miterlimit="10" fill="none"/><path d="M148.5 160.484l-29.633 2.485 2.64 9.99zm0 0"/><path d="M112.512 196.227l-14.157 3.742" stroke-width="1.2" stroke="#00f" stroke-miterlimit="10" fill="none"/><path d="M98.355 199.97L84.2 203.706" stroke-width="1.2" stroke="#000" stroke-miterlimit="10" fill="none"/><path d="M107.918 190.313l-11.324 2.992" stroke-width="1.2" stroke="#00f" stroke-miterlimit="10" fill="none"/><path d="M96.594 193.305l-11.324 2.992" stroke-width="1.2" stroke="#000" stroke-miterlimit="10" fill="none"/><path d="M108.512 189.227h9v14h-9zm0 0" fill="#fff"/><use xlink:href="#b" x="108.512" y="200.365" fill="#00f"/><path d="M148.5 160.484l3.84-14.132" stroke-width="1.2" stroke="#000" stroke-miterlimit="10" fill="none"/><path d="M152.34 146.352l3.836-14.13" stroke-width="1.2" stroke="#00f" stroke-miterlimit="10" fill="none"/><path d="M148.5 160.484l20.637 20.778" stroke-width="1.2" stroke="#000" stroke-miterlimit="10" fill="none"/><path d="M156.176 132.223l14.156-3.743" stroke-width="1.2" stroke="#00f" stroke-miterlimit="10" fill="none"/><path d="M170.332 128.48l14.156-3.738" stroke-width="1.2" stroke="#000" stroke-miterlimit="10" fill="none"/><path d="M147.176 125.223h18v14h-18zm0 0" fill="#fff"/><g fill="#00f"><use xlink:href="#b" x="147.176" y="136.361"/><use xlink:href="#c" x="156.152" y="136.361"/></g><path d="M184.488 124.742l10.32 10.387" stroke-width="1.2" stroke="#000" stroke-miterlimit="10" fill="none"/><path d="M194.81 135.13l10.315 10.39" stroke-width="1.2" stroke="#00f" stroke-miterlimit="10" fill="none"/><path d="M191.44 121.96l8.26 8.313" stroke-width="1.2" stroke="#000" stroke-miterlimit="10" fill="none"/><path d="M199.7 130.273l8.253 8.313" stroke-width="1.2" stroke="#00f" stroke-miterlimit="10" fill="none"/><path d="M192.168 96.48l-7.68 28.262" stroke-width="1.2" stroke="#000" stroke-miterlimit="10" fill="none"/><path d="M205.125 145.52l14.156-3.743" stroke-width="1.2" stroke="#00f" stroke-miterlimit="10" fill="none"/><path d="M219.28 141.777l14.157-3.742" stroke-width="1.2" stroke="#000" stroke-miterlimit="10" fill="none"/><path d="M201.125 138.52h9v14h-9zm0 0" fill="#fff"/><use xlink:href="#b" x="201.125" y="149.658" fill="#00f"/><path d="M233.438 138.035l10.32 10.39" stroke-width="1.2" stroke="#000" stroke-miterlimit="10" fill="none"/><path d="M243.758 148.426l10.316 10.39" stroke-width="1.2" stroke="#00f" stroke-miterlimit="10" fill="none"/><path d="M233.438 138.035l7.68-28.258M227.56 133.402l6.14-22.605" stroke-width="1.2" stroke="#000" stroke-miterlimit="10" fill="none"/><path d="M254.074 158.816l-3.836 14.13" stroke-width="1.2" stroke="#00f" stroke-miterlimit="10" fill="none"/><path d="M250.238 172.945l-3.84 14.13" stroke-width="1.2" stroke="#000" stroke-miterlimit="10" fill="none"/><path d="M245.074 151.816h18v14h-18zm0 0" fill="#fff"/><g fill="#00f"><use xlink:href="#b" x="245.074" y="162.955"/><use xlink:href="#c" x="254.051" y="162.955"/></g><path d="M246.398 187.074l9.176 11.414" stroke-width="1.2" stroke="#000" stroke-miterlimit="10" fill="none"/><path d="M255.574 198.488l9.176 11.41" stroke-width="1.2" stroke="#00f" stroke-miterlimit="10" fill="none"/><path d="M219.023 197.477l27.375-10.403M224.207 202.88l21.902-8.32" stroke-width="1.2" stroke="#000" stroke-miterlimit="10" fill="none"/><path d="M264.75 209.898l-16.035 24.504" stroke-width="1.2" stroke="#00f" stroke-miterlimit="10" fill="none"/><path d="M255.75 202.898h18v14h-18zm0 0" fill="#fff"/><g fill="#00f"><use xlink:href="#b" x="255.75" y="214.037"/><use xlink:href="#c" x="264.727" y="214.037"/></g><path d="M248.715 234.402l-14.13-3.84" stroke-width="1.2" stroke="#00f" stroke-miterlimit="10" fill="none"/><path d="M234.586 230.563l-14.13-3.836" stroke-width="1.2" stroke="#000" stroke-miterlimit="10" fill="none"/><path d="M247.695 226.984l-11.304-3.07" stroke-width="1.2" stroke="#00f" stroke-miterlimit="10" fill="none"/><path d="M236.39 223.914l-11.304-3.07" stroke-width="1.2" stroke="#000" stroke-miterlimit="10" fill="none"/><path d="M244.715 227.402h9v14h-9zm0 0" fill="#fff"/><use xlink:href="#b" x="244.715" y="238.541" fill="#00f"/><path d="M220.457 226.727l-1.434-29.25M220.457 226.727l-22.824 18.35M241.117 109.777l-10.32-10.39" stroke-width="1.2" stroke="#000" stroke-miterlimit="10" fill="none"/><path d="M230.797 99.387l-10.317-10.39M220.48 88.996l-14.156 3.742" stroke-width="1.2" stroke="#00f" stroke-miterlimit="10" fill="none"/><path d="M206.324 92.738l-14.156 3.742" stroke-width="1.2" stroke="#000" stroke-miterlimit="10" fill="none"/><path d="M219.41 96.406l-11.328 2.992" stroke-width="1.2" stroke="#00f" stroke-miterlimit="10" fill="none"/><path d="M208.082 99.398l-11.324 2.997" stroke-width="1.2" stroke="#000" stroke-miterlimit="10" fill="none"/><path d="M216.48 81.996h9v14h-9zm0 0" fill="#fff"/><use xlink:href="#b" x="216.48" y="93.135" fill="#00f"/><path d="M192.168 96.48L171.53 75.703M171.53 75.703l-10.32-10.39" stroke-width="1.2" stroke="#000" stroke-miterlimit="10" fill="none"/><path d="M161.21 65.313l-10.315-10.39" stroke-width="1.2" stroke="#00f" stroke-miterlimit="10" fill="none"/><path d="M174.355 68.77l-8.253-8.313" stroke-width="1.2" stroke="#000" stroke-miterlimit="10" fill="none"/><path d="M166.102 60.457l-8.254-8.312" stroke-width="1.2" stroke="#00f" stroke-miterlimit="10" fill="none"/><path d="M164.578 78.48l-8.254-8.312" stroke-width="1.2" stroke="#000" stroke-miterlimit="10" fill="none"/><path d="M156.324 70.168l-8.254-8.313" stroke-width="1.2" stroke="#00f" stroke-miterlimit="10" fill="none"/><path d="M141.895 47.922h9v14h-9zm0 0" fill="#fff"/><use xlink:href="#b" x="141.895" y="59.061" fill="#00f"/></g></svg>
